gtk/icon/64x64/mimetypes/application-x-compress.svg

<svg xmlns="http://www.w3.org/2000/svg" width="64" height="64" version="1">
 <path style="opacity:0.2" d="M 14.5,8 C 13.115,8 12,9.115 12,10.5 v 45 c 0,1.385 1.115,2.5 2.5,2.5 h 35 C 50.885,58 52,56.885 52,55.5 V 23 L 38.25,21.75 37,8 Z"/>
 <path fill="#8bc34a" d="m14.5 7c-1.385 0-2.5 1.115-2.5 2.5v45c0 1.385 1.115 2.5 2.5 2.5h35c1.385 0 2.5-1.115 2.5-2.5v-32.5l-13.75-1.25-1.25-13.75z"/>
 <path style="opacity:0.2" d="m 37,8 v 12.5 c 0,1.3808 1.1193,2.5 2.5,2.5 H 52 Z"/>
 <path fill="#c5e1a5" d="m37 7v12.5c0 1.3808 1.1193 2.5 2.5 2.5h12.5l-15-15z"/>
 <path style="opacity:0.2" d="m 32,32 c -2.210666,0 -4,1.8 -4,4 v 8 c 0,2.2 1.79,4 4,4 2.21,0 4,-1.8 4,-4 v -8 c 0,-2.2 -1.789334,-4 -4,-4 z m 0,2 c 1.104,0 2,0.8 2,2 0,0.999998 -0.896,2 -2,2 -1.104,0 -2,-1.000002 -2,-2 0,-1.2 0.896,-2 2,-2 z m 0,6 c 1.10457,0 2,0.89543 2,2 v 2 c 0,1.10457 -0.89543,2 -2,2 -1.10457,0 -2,-0.89543 -2,-2 v -2 c 0,-1.10457 0.89543,-2 2,-2 z"/>
 <path style="opacity:0.2" d="m 30,7 v 22 c 0,1.1 0.895,2 2,2 1.105,0 2,-0.9 2,-2 V 7 Z"/>
 <path style="opacity:0.2" d="m 31,12 v 1 h 1 v -1 z m 1,1 v 1 h 1 v -1 z m 0,1 h -1 v 1 h 1 z m 0,1 v 1 h 1 v -1 z m 0,1 h -1 v 1 h 1 z m 0,1 v 1 h 1 v -1 z m 0,1 h -1 v 1 h 1 z m 0,1 v 1 h 1 v -1 z m 0,1 h -1 v 1 h 1 z m 0,1 v 1 h 1 v -1 z"/>
 <path style="fill:#dddddd" d="m 31,13 v 1 h 1 v -1 z m 0,2 v 1 h 1 v -1 z m 0,2 v 1 h 1 v -1 z m 0,2 v 1 h 1 v -1 z m 0,2 v 1 h 1 v -1 z"/>
 <path style="opacity:0.2" d="m 31,23 h 1 c 0.04125,-0.367529 0,-1 0,-1 h -1 z m 1,0 v 1 h 1 v -1 z m 0,1 h -1 v 1 h 1 z m 0,1 v 1 h 1 v -1 z m 0,1 h -1 v 1 h 1 z m 0,1 v 1 h 1 v -1 z m 0,1 h -1 v 1 h 1 z m 0,1 v 1 h 1 v -1 z m 0,1 h -1 c -0.04374,0.389771 0,1 0,1 h 1 c 0,0 0,-0.52979 0,-1 z"/>
 <path style="fill:#dddddd" d="m 31,23 v 1 h 1 v -1 z m 0,2 v 1 h 1 v -1 z m 0,2 v 1 h 1 v -1 z m 0,2 v 1 h 1 v -1 z"/>
 <path style="fill:#ffffff" d="m 32,31 c -2.210666,0 -4,1.8 -4,4 v 8 c 0,2.2 1.79,4 4,4 2.21,0 4,-1.8 4,-4 v -8 c 0,-2.2 -1.789334,-4 -4,-4 z m 0,2 c 1.104,0 2,0.8 2,2 0,0.999998 -0.896,2 -2,2 -1.104,0 -2,-1.000002 -2,-2 0,-1.2 0.896,-2 2,-2 z m 0,6 c 1.10457,0 2,0.89543 2,2 v 2 c 0,1.10457 -0.89543,2 -2,2 -1.10457,0 -2,-0.89543 -2,-2 v -2 c 0,-1.10457 0.89543,-2 2,-2 z"/>
 <path style="opacity:0.2;fill:#ffffff" d="M 14.5,7 C 13.115,7 12,8.115 12,9.5 v 1 C 12,9.115 13.115,8 14.5,8 H 37 V 7 Z"/>
 <path style="fill:#dddddd" d="m 31,7 v 1 h 1 V 7 Z m 0,2 v 1 h 1 V 9 Z m 0,2 v 1 h 1 v -1 z"/>
 <path style="opacity:0.2" d="M 32 7 L 32 8 L 33 8 L 33 7 L 32 7 z M 32 8 L 31 8 L 31 9 L 32 9 L 32 8 z M 32 9 L 32 10 L 33 10 L 33 9 L 32 9 z M 32 10 L 31 10 L 31 11 L 32 11 L 32 10 z M 32 11 L 32 12 L 33 12 L 33 11 L 32 11 z"/>
</svg>

<svg xmlns="http://www.w3.org/2000/svg" width="64" height="64" version="1">
 <path style="opacity:0.2" d="M 14.5,8 C 13.115,8 12,9.115 12,10.5 V 55.5 C 12,56.885 13.115,58 14.5,58 H 49.5 C 50.885,58 52,56.885 52,55.5 V 23 L 38.25,21.75 37,8 Z"/>
 <path style="fill:#8bc34a" d="M 14.5,7 C 13.115,7 12,8.115 12,9.5 V 54.5 C 12,55.885 13.115,57 14.5,57 H 49.5 C 50.885,57 52,55.885 52,54.5 V 22 L 38.25,20.75 37,7 Z"/>
 <path style="opacity:0.2" d="M 37,8 V 20.5 C 37,21.881 38.119,23 39.5,23 H 52 Z"/>
 <path style="fill:#c5e1a5" d="M 37,7 V 19.5 C 37,20.881 38.119,22 39.5,22 H 52 Z"/>
 <path style="opacity:0.2;fill:#ffffff" d="M 14.5,7 C 13.115,7 12,8.115 12,9.5 V 10.5 C 12,9.115 13.115,8 14.5,8 H 37 V 7 Z"/>
 <path style="opacity:0.2" d="M 30,7 V 29 C 30,30.1 30.895,31 32,31 33.105,31 34,30.1 34,29 V 7 Z"/>
 <path style="opacity:0.2" d="M 32,32 C 29.789,32 28,33.8 28,36 V 44 C 28,46.2 29.79,48 32,48 34.21,48 36,46.2 36,44 V 36 C 36,33.8 34.211,32 32,32 Z M 32,34 C 33.104,34 34,34.8 34,36 34,37 33.104,38 32,38 30.896,38 30,37 30,36 30,34.8 30.896,34 32,34 Z M 32,40 C 33.105,40 34,40.895 34,42 V 44 C 34,45.105 33.105,46 32,46 30.895,46 30,45.105 30,44 V 42 C 30,40.895 30.895,40 32,40 Z"/>
 <path style="fill:#ffffff" d="M 32,31 C 29.789,31 28,32.8 28,35 V 43 C 28,45.2 29.79,47 32,47 34.21,47 36,45.2 36,43 V 35 C 36,32.8 34.211,31 32,31 Z M 32,33 C 33.104,33 34,33.8 34,35 34,36 33.104,37 32,37 30.896,37 30,36 30,35 30,33.8 30.896,33 32,33 Z M 32,39 C 33.105,39 34,39.895 34,41 V 43 C 34,44.105 33.105,45 32,45 30.895,45 30,44.105 30,43 V 41 C 30,39.895 30.895,39 32,39 Z"/>
 <path style="opacity:0.2" d="M 32,7 V 8 H 33 V 7 Z M 32,8 H 31 V 9 H 32 Z M 32,9 V 10 H 33 V 9 Z M 32,10 H 31 V 11 H 32 Z M 32,11 V 12 H 33 V 11 Z M 32,12 H 31 V 13 H 32 Z M 32,13 V 14 H 33 V 13 Z M 32,14 H 31 V 15 H 32 Z M 32,15 V 16 H 33 V 15 Z M 32,16 H 31 V 17 H 32 Z M 32,17 V 18 H 33 V 17 Z M 32,18 H 31 V 19 H 32 Z M 32,19 V 20 H 33 V 19 Z M 32,20 H 31 V 21 H 32 Z M 32,21 V 22 H 33 V 21 Z M 32,22 H 31 V 23 H 32 Z M 32,23 V 24 H 33 V 23 Z M 32,24 H 31 V 25 H 32 Z M 32,25 V 26 H 33 V 25 Z M 32,26 H 31 V 27 H 32 Z M 32,27 V 28 H 33 V 27 Z M 32,28 H 31 V 29 H 32 Z M 32,29 V 30 H 33 V 29 Z M 32,30 H 31 V 31 H 32 Z"/>
 <path style="fill:#dddddd" d="M 31,7 V 8 H 32 V 7 Z M 31,9 V 10 H 32 V 9 Z M 31,11 V 12 H 32 V 11 Z M 31,13 V 14 H 32 V 13 Z M 31,15 V 16 H 32 V 15 Z M 31,17 V 18 H 32 V 17 Z M 31,19 V 20 H 32 V 19 Z M 31,21 V 22 H 32 V 21 Z M 31,23 V 24 H 32 V 23 Z M 31,25 V 26 H 32 V 25 Z M 31,27 V 28 H 32 V 27 Z M 31,29 V 30 H 32 V 29 Z"/>
</svg>
